src/components/sections/images/img_icon_black_900.svg

<svg width="32" height="32" viewBox="0 0 32 32" fill="none" xmlns="http://www.w3.org/2000/svg">
<path fill-rule="evenodd" clip-rule="evenodd" d="M12.7368 5.9999C11.0064 5.42571 10.5033 5.39075 9.76637 6.12427C9.24445 6.64374 7.5741 8.32753 7.05462 7.80561C6.53515 7.28369 6.5327 4.54222 7.05462 4.02275C8.73035 2.35488 12.9927 0.556402 15.3336 1.33318C17.0128 1.89036 17.8979 4.75977 19.0798 6.43957C20.2616 4.75978 21.0133 2.61395 22.6926 2.0568C25.0336 1.28008 29.0592 2.14617 30.7349 3.81421C31.2568 4.33371 32.0885 7.28372 31.569 7.80561C31.0495 8.3275 28.915 6.64408 28.3931 6.12457C27.6561 5.39095 27.0641 5.42577 25.3336 5.9999C24.5428 6.26229 22.8252 6.32644 22.1379 6.96664C25.4323 6.59921 28.8658 7.56308 30.0201 9.86088C30.3506 10.5189 30.6781 15.0706 30.0201 15.4012C29.362 15.7317 25.0188 13.3247 24.6883 12.6667C23.9167 11.1306 23.7955 8.77191 20.6469 10.0925C21.6257 14.1218 21.579 17.9787 20.9946 21.1803C20.6101 23.2863 19.979 25.1785 19.2059 26.6666H23.9051C24.6415 26.6666 25.2385 27.2636 25.2385 28C25.2385 28.7363 24.6415 29.3333 23.9051 29.3333H9.42896C8.69258 29.3333 8.09562 28.7363 8.09562 28C8.09562 27.2636 8.69258 26.6666 9.42896 26.6666H14.346C13.7736 25.638 13.2038 24.5192 12.7368 23.3654C12.19 22.0141 11.7546 20.545 11.6462 19.0611C11.3427 19.2358 11.0063 19.4472 10.6596 19.6964C9.42365 20.585 9.38064 21.6692 8.89379 23.3654C8.69064 24.0732 6.70809 26.2032 6.00029 26C5.29249 25.7968 4.92834 23.5319 5.1315 22.8241C5.81735 20.4346 7.46111 18.7569 8.89379 17.6847C7.33517 17.6673 5.88051 18.0511 4.79937 18.8603C4.20985 19.3016 3.10822 20.2859 2.66696 19.6964C2.22569 19.1069 4.21021 15.7746 4.79973 15.3333C7.68226 13.1757 10.184 14.6436 13.4408 15.9095C14.0893 16.1616 14.4513 16.8255 14.3508 17.4842C14.1307 18.9277 14.4936 20.5979 15.2088 22.365C15.6517 23.4596 16.2063 24.536 16.7786 25.5528C17.4039 24.3837 18.0004 22.733 18.3713 20.7014C18.9154 17.7205 18.9412 14.0808 17.9465 10.29C16.4374 9.33323 14.8909 10.4295 14.0843 12.0353C13.7537 12.6934 9.99166 13.2297 9.33364 12.8991C8.67562 12.5686 9.00309 9.99125 9.33364 9.33323C10.4879 7.03549 12.7271 6.59913 16.0215 6.96654C15.3343 6.32636 13.5277 6.26231 12.7368 5.9999Z" fill="black"/>
</svg>

<svg width="32" height="32" fill="none" xmlns="http://www.w3.org/2000/svg"><path fill-rule="evenodd" clip-rule="evenodd" d="M12.737 6c-1.73-.574-2.234-.61-2.97.124-.523.52-2.193 2.204-2.712 1.682-.52-.522-.522-3.264 0-3.783 1.675-1.668 5.938-3.467 8.279-2.69 1.679.557 2.564 3.427 3.746 5.107 1.182-1.68 1.933-3.826 3.613-4.383 2.34-.777 6.366.09 8.042 1.757.522.52 1.354 3.47.834 3.992-.52.522-2.654-1.162-3.176-1.681-.737-.734-1.329-.7-3.06-.125-.79.262-2.508.326-3.195.967 3.294-.368 6.728.596 7.882 2.894.33.658.658 5.21 0 5.54-.658.33-5.001-2.076-5.332-2.734-.771-1.536-.892-3.895-4.041-2.575.979 4.03.932 7.887.348 11.088-.385 2.106-1.016 3.998-1.79 5.487h4.7a1.333 1.333 0 0 1 0 2.666H9.43a1.333 1.333 0 0 1 0-2.666h4.917c-.572-1.029-1.142-2.148-1.61-3.302-.546-1.35-.981-2.82-1.09-4.304-.303.175-.64.386-.986.635-1.236.889-1.28 1.973-1.766 3.67C8.69 24.072 6.708 26.202 6 26c-.708-.203-1.072-2.468-.869-3.176.686-2.39 2.33-4.067 3.763-5.14-1.559-.017-3.013.367-4.095 1.176-.59.442-1.69 1.426-2.132.836-.441-.59 1.543-3.921 2.133-4.363 2.882-2.157 5.384-.69 8.64.576.65.253 1.011.917.91 1.575-.22 1.444.144 3.114.859 4.881.443 1.095.997 2.171 1.57 3.188.625-1.17 1.221-2.82 1.592-4.852.544-2.98.57-6.62-.424-10.411-1.51-.957-3.056.14-3.863 1.745-.33.658-4.092 1.195-4.75.864-.658-.33-.33-2.908 0-3.566 1.154-2.298 3.393-2.734 6.688-2.366-.688-.64-2.494-.705-3.285-.967z" fill="#000"/></svg>
